X:1
P: Miss Stewart of Grandtully's Strathspey
C: from B. McOwen
C: Arr. T. Traub 1-2-2000
R: Strathspey
M: 4/4
K: A
L: 1/8
|:e|"A"A<Ac>A c/d/e c2|"G"B<=GB>c d/c/B/A/ G>B|"A"A<Ac>A c/d/e c2|"D"A<a"E"e>f "A"c<A A:|
g|"A"a>ea>e a/g/f/e/ a>e|"G"=g>dg>d B<GG>^g|"A"a>ea>e a/g/f/e/ a>e| "D"f>e"E"a>e "A"c>AA>g |
"A"a>ea>e a/g/f/e/ a>e|"G"=g>dg>d B<GGA c/d/e c2|"D"A<a"E"e<f "A"c<A A |]
